public/images/hashed/06692b99efe3c054dcb87333b5f59d3a.svg

<?xml version="1.0" encoding="UTF-8"?>
<svg width="80px" height="80px" viewBox="0 0 80 80" version="1.1" xmlns="http://www.w3.org/2000/svg" xmlns:xlink="http://www.w3.org/1999/xlink">
    <title>Icon-Architecture/64/Arch_Amazon-Connect_64</title>
    <defs>
        <linearGradient x1="0%" y1="100%" x2="100%" y2="0%" id="linearGradient-1">
            <stop stop-color="#BD0816" offset="0%"></stop>
            <stop stop-color="#FF5252" offset="100%"></stop>
        </linearGradient>
    </defs>
    <g id="Icon-Architecture/64/Arch_Amazon-Connect_64" stroke="none" stroke-width="1" fill="none" fill-rule="evenodd">
        <g id="Rectangle" fill="url(#linearGradient-1)">
            <rect x="0" y="0" width="80" height="80"></rect>
        </g>
        <path d="M52.278,36.4629928 C51.175,36.4629928 50.278,35.568125 50.278,34.4677467 C50.278,33.3673685 51.175,32.4725007 52.278,32.4725007 C53.381,32.4725007 54.278,33.3673685 54.278,34.4677467 C54.278,35.568125 53.381,36.4629928 52.278,36.4629928 M43.278,46.4392233 C42.175,46.4392233 41.278,45.5443554 41.278,44.4439772 C41.278,43.343599 42.175,42.4487311 43.278,42.4487311 C44.381,42.4487311 45.278,43.343599 45.278,44.4439772 C45.278,45.5443554 44.381,46.4392233 43.278,46.4392233 M35.278,34.4677467 C34.175,34.4677467 33.278,33.5728789 33.278,32.4725007 C33.278,31.3721224 34.175,30.4772546 35.278,30.4772546 C36.381,30.4772546 37.278,31.3721224 37.278,32.4725007 C37.278,33.5728789 36.381,34.4677467 35.278,34.4677467 M25.278,44.4439772 C24.175,44.4439772 23.278,43.5491093 23.278,42.4487311 C23.278,41.3483529 24.175,40.453485 25.278,40.453485 C26.381,40.453485 27.278,41.3483529 27.278,42.4487311 C27.278,43.5491093 26.381,44.4439772 25.278,44.4439772 M52.278,30.4772546 C50.072,30.4772546 48.278,32.2669903 48.278,34.4677467 C48.278,35.5252272 48.7,36.4819477 49.376,37.1962458 L45.741,41.3234123 C45.06,40.7866911 44.212,40.453485 43.278,40.453485 C42.871,40.453485 42.485,40.5322972 42.114,40.6460263 L38.382,34.9595749 C38.933,34.2752055 39.278,33.4172497 39.278,32.4725007 C39.278,30.2717442 37.484,28.4820085 35.278,28.4820085 C33.072,28.4820085 31.278,30.2717442 31.278,32.4725007 C31.278,33.3414303 31.565,34.1395288 32.04,34.7959647 L27.596,39.2084515 C26.94,38.7405662 26.144,38.4582389 25.278,38.4582389 C23.072,38.4582389 21.278,40.2479747 21.278,42.4487311 C21.278,44.6494875 23.072,46.4392233 25.278,46.4392233 C27.484,46.4392233 29.278,44.6494875 29.278,42.4487311 C29.278,41.8381858 29.129,41.2645525 28.882,40.7467862 L33.586,36.0749175 C34.101,36.3173399 34.671,36.4629928 35.278,36.4629928 C35.81,36.4629928 36.316,36.3542519 36.782,36.1657012 L40.403,41.681559 C39.71,42.3998476 39.278,43.3705348 39.278,44.4439772 C39.278,46.6447336 41.072,48.4344694 43.278,48.4344694 C45.484,48.4344694 47.278,46.6447336 47.278,44.4439772 C47.278,43.9122441 47.169,43.4054516 46.978,42.9415569 L51.099,38.2617072 C51.474,38.3774315 51.865,38.4582389 52.278,38.4582389 C54.484,38.4582389 56.278,36.6685032 56.278,34.4677467 C56.278,32.2669903 54.484,30.4772546 52.278,30.4772546 M58.71,50.4297154 L49.568,50.4297154 C49.356,50.4297154 49.15,50.4965562 48.979,50.6212591 L33.278,62.0410501 L33.278,51.4273385 C33.278,50.8766506 32.831,50.4297154 32.278,50.4297154 L21.001,50.4297154 C19.989,50.4287178 19.19,50.235179 18.559,49.8371274 C16.479,48.5272483 14,46.0072525 14,41.438139 C14,35.3416645 18.251,33.3434256 20.786,32.693973 C21.249,32.5752558 21.563,32.1452803 21.535,31.6684165 L21.434,29.9954026 C21.434,25.1409689 24.786,19.9194099 29.064,18.1067288 C30.989,17.2916708 32.768,16.9674433 34.381,16.9674433 C38.966,16.9674433 42.205,19.5921895 43.619,21.0118071 C45.174,22.5730872 46.389,24.5673357 47.227,26.9416785 C47.35,27.2898489 47.657,27.5422476 48.023,27.5961192 C48.392,27.6489932 48.756,27.4983522 48.975,27.2010605 C50.247,25.4801607 52.437,24.7618722 54.423,25.41332 C56.652,26.1435801 57.938,28.3104173 57.96,31.3631438 L57.954,31.3960654 C57.87,31.9347818 58.234,32.4415743 58.772,32.5343533 C60.703,32.8665618 67,34.4946826 67,41.5229369 C67,49.6914744 58.976,50.4067701 58.71,50.4297154 M59.94,30.7366366 C59.734,27.1382102 57.938,24.4655781 55.047,23.5178362 C52.778,22.7736094 50.323,23.2863877 48.523,24.788808 C47.632,22.7746071 46.464,21.0357501 45.037,19.6051586 C40.46,15.0111045 34.196,13.7650733 28.283,16.2701048 C23.238,18.4070134 19.434,24.3079537 19.436,30.0542624 L19.492,30.9940233 C16.742,31.8908864 12,34.4547776 12,41.438139 C12,47.2053978 15.44,50.2331837 17.491,51.5241079 C18.451,52.1286675 19.598,52.4239639 21,52.4249615 L31.278,52.4249615 L31.278,64.002377 C31.278,64.3784808 31.489,64.7216632 31.825,64.8922567 C31.967,64.9650832 32.123,65 32.278,65 C32.486,65 32.693,64.9361521 32.867,64.809454 L49.894,52.4249615 L58.783,52.4229663 C58.884,52.4149853 69,51.5620176 69,41.5229369 C69,33.7823797 62.851,31.4200083 59.94,30.7366366" id="Amazon-Connect_Icon_64_Squid" fill="#FFFFFF"></path>
    </g>
</svg>

<svg xmlns="http://www.w3.org/2000/svg" width="80" height="80"><defs><linearGradient id="a" x1="0%" x2="100%" y1="100%" y2="0%"><stop offset="0%" stop-color="#BD0816"/><stop offset="100%" stop-color="#FF5252"/></linearGradient></defs><g fill="none" fill-rule="evenodd"><path fill="url(#a)" d="M0 0h80v80H0z"/><path fill="#FFF" d="M52.278 36.463a2 2 0 0 1-2-1.995 2 2 0 0 1 4 0 2 2 0 0 1-2 1.995m-9 9.976a2 2 0 0 1-2-1.995 2 2 0 0 1 4 0 2 2 0 0 1-2 1.995m-8-11.971a2 2 0 0 1-2-1.995 2 2 0 0 1 4 0 2 2 0 0 1-2 1.995m-10 9.976a2 2 0 0 1-2-1.995 2 2 0 0 1 4 0 2 2 0 0 1-2 1.995m27-13.967a4 4 0 0 0-4 3.99c0 1.058.422 2.015 1.098 2.73l-3.635 4.126a3.962 3.962 0 0 0-2.463-.87c-.407 0-.793.08-1.164.193l-3.732-5.686a3.953 3.953 0 0 0 .896-2.487 4 4 0 0 0-4-3.991 4 4 0 0 0-4 3.99c0 .87.287 1.668.762 2.324l-4.444 4.412a3.976 3.976 0 0 0-2.318-.75 4 4 0 0 0-4 3.99 4 4 0 0 0 4 3.991 4 4 0 0 0 4-3.99c0-.61-.149-1.184-.396-1.702l4.704-4.672a3.958 3.958 0 0 0 1.692.388c.532 0 1.038-.109 1.504-.297l3.621 5.516a3.967 3.967 0 0 0-1.125 2.762 4 4 0 0 0 4 3.99 4 4 0 0 0 4-3.99c0-.532-.109-1.039-.3-1.502l4.121-4.68c.375.115.766.196 1.179.196a4 4 0 0 0 4-3.99 4 4 0 0 0-4-3.99M58.71 50.43h-9.142a.999.999 0 0 0-.589.191l-15.701 11.42V51.427a.999.999 0 0 0-1-.997H21.001c-1.012-.001-1.811-.195-2.442-.593-2.08-1.31-4.559-3.83-4.559-8.399 0-6.096 4.251-8.095 6.786-8.744a.999.999 0 0 0 .749-1.026l-.101-1.673c0-4.854 3.352-10.076 7.63-11.888 1.925-.815 3.704-1.14 5.317-1.14 4.585 0 7.824 2.625 9.238 4.045 1.555 1.561 2.77 3.555 3.608 5.93a.999.999 0 0 0 1.748.26c1.272-1.722 3.462-2.44 5.448-1.789 2.229.73 3.515 2.897 3.537 5.95l-.006.033a1 1 0 0 0 .818 1.138c1.931.333 8.228 1.96 8.228 8.989 0 8.168-8.024 8.884-8.29 8.907m1.23-19.693c-.206-3.599-2.002-6.271-4.893-7.22-2.269-.743-4.724-.23-6.524 1.272-.891-2.014-2.059-3.753-3.486-5.184-4.577-4.594-10.841-5.84-16.754-3.335-5.045 2.137-8.849 8.038-8.847 13.784l.056.94c-2.75.897-7.492 3.46-7.492 10.444 0 5.767 3.44 8.795 5.491 10.086.96.605 2.107.9 3.509.901h10.278v11.577a.997.997 0 0 0 1 .998 1 1 0 0 0 .589-.19l17.027-12.385 8.889-.002c.101-.008 10.217-.861 10.217-10.9 0-7.74-6.149-10.103-9.06-10.786"/></g></svg>
